X:1
T:Title
%%score { ( 1 3 ) | ( 2 4 ) }
L:1/8
M:6/8
K:Bb
V:1 treble nm="Grand Piano"
V:3 treble 
V:2 bass 
V:4 bass 
V:1
 z3 z2[Q:1/4=100] [DF] | [DF][_D=E][=DF] [_DB][DA][DG] | [DF][B,D][_DG] [=DF]2 [DF] | %3
 FAG [DF][FB][FA] |[M:5/8] [=EG][Ec][Ed] [_Ec]2 |[M:1/8] [EF] | %6
[M:3/4] [DF][_D=E] [=DF][_DB] [DA][DG] | [DF][B,D] [_DG] [F,=DF]2 [DFB] | %8
 [CFA][Fc] [Fd][Fc] [CFA][A,F] |[M:5/8] [D=EB][CEA][B,EG] [A,F]2 |[M:1/8] [Fd] |[M:3/4] d6 | e6 | %13
 e6 |[M:5/8] [Fd][Bd][Ge] [Fd]2 |[M:1/8] [Fd] |[M:3/4] [^Fd][FA] [Ac] [GB]2 [=F=B] | %17
 [=Ec][EG] [GB] A2 A | GA B[D=EB] [CEA][B,EG] | F6 |[M:1/8] [Fd] | %21
[M:3/4] d-[Gd-] [Ad-][Bd-] [Ad][Gd] | e6 | e6 |[M:5/8] [Fd][Bd][Ge] [Fd]2 |[M:1/8] d | %26
[M:3/4] fd c B2 B |[M:7/8] [Gc][Gc][Gd] [Ge]3 [Ge] | dFd [=Ec][EG]3/2[_Ec]3/2 | %29
[M:5/8] B-B- B3[Q:1/4=99][Q:1/4=97][Q:1/4=96][Q:1/4=94][Q:1/4=93][Q:1/4=91][Q:1/4=90][Q:1/4=88][Q:1/4=87][Q:1/4=85][Q:1/4=84][Q:1/4=82][Q:1/4=81][Q:1/4=79][Q:1/4=78][Q:1/4=76] |] %30
V:2
 z3 z2 [B,,F,] | [B,,F,][B,,G,][B,,F,] [B,,=E,][B,,E,][B,,E,] | %2
 [B,,F,][B,,F,][B,,=E,] [B,,F,]2 [B,,B,] | [F,A,E][F,CE][F,A,E] [B,,B,][D,B,][D,B,] | %4
[M:5/8] [C,B,][C,B,][C,B,] [F,A,]2 |[M:1/8] [F,A,] | %6
[M:3/4] [B,,F,][B,,G,] [B,,F,][B,,=E,] [B,,E,][B,,E,] | [B,,F,][B,,F,] [B,,=E,] B,,2 B,, | %8
 C,[C,A,] [C,A,][C,A,] C,C, |[M:5/8] C,C,C, F,2 |[M:1/8] [B,,B,] | %11
[M:3/4] [B,,B,]4- [B,,B,][B,,B,] | .[A,F]2 z2 z2 | .[A,F]2 z2 z2 | %14
[M:5/8] [B,,B,][B,,B,][B,,B,] [B,,B,]2 |[M:1/8] [B,,B,] |[M:3/4] [D,A,][D,D] [D,D] [G,D]2 [G,D] | %17
 [C,C][C,C] [=E,C][K:treble] [F,CF]2 [A,CF] | [B,DF][A,DF] [G,DF][K:bass]C, C,C, | z A, B, C3 | %20
[M:1/8] [B,,B,] |[M:3/4] [B,,B,]4- [B,,B,][B,,B,] | [A,F]C B, A,2 [F,A,F] | [A,F]B, CC B,[F,A,F] | %24
[M:5/8] [B,,B,][B,,B,][B,,B,] [B,,B,]2 |[M:1/8][K:treble] [B,FB] | %26
[M:3/4] [B,D_A][B,FA] [B,EA] [B,DA]2 [B,DA] |[M:7/8][K:bass] [E,E][E,E][D,=B,] [C,C]3 [C,C] | %28
 [F,B,F][F,B,D][F,B,F] [C,B,][C,B,]3/2[F,A,]3/2 |[M:5/8] z A,G, F,2 |] %30
V:3
 x6 | x6 | x6 | x6 |[M:5/8] x5 |[M:1/8] x |[M:3/4] x6 | x6 | x6 |[M:5/8] x5 |[M:1/8] x | %11
[M:3/4] FG AB A[Gd] | z A G F2 e | z G AA Ge |[M:5/8] x5 |[M:1/8] x |[M:3/4] x6 | x6 | x6 | %19
 A,C D E3 |[M:1/8] x |[M:3/4] .F2 z2 z2 | z A G F2 e | z G AA Ge |[M:5/8] x5 |[M:1/8] x | %26
[M:3/4] x6 |[M:7/8] x7 | x7 |[M:5/8] [B,D]FE D2 |] %30
V:4
 x6 | x6 | x6 | x6 |[M:5/8] x5 |[M:1/8] x |[M:3/4] x6 | x6 | x6 |[M:5/8] x5 |[M:1/8] x | %11
[M:3/4] x6 | F,-[F,-C] [F,-B,] [F,A,]2 [F,A,F] | F,-[F,-B,] [F,-C][F,-C] [F,B,][F,A,F] | %14
[M:5/8] x5 |[M:1/8] x |[M:3/4] x6 | x3[K:treble] x3 | x3[K:bass] x3 | F,6 |[M:1/8] x |[M:3/4] x6 | %22
 F,6 | F,6 |[M:5/8] x5 |[M:1/8][K:treble] x |[M:3/4] x6 |[M:7/8][K:bass] x7 | x7 | %29
[M:5/8] B,,-B,,- B,,3 |] %30

